svgs/railbound.svg

<svg width="192" height="192" viewBox="0 0 192 192" fill="none" xmlns="http://www.w3.org/2000/svg">
<path d="M130.068 140.239C132.548 138.205 132.36 133.873 129.647 130.564C126.933 127.255 122.723 126.221 120.242 128.255C117.761 130.289 117.949 134.621 120.663 137.93C123.376 141.239 127.587 142.273 130.068 140.239Z" stroke="black" stroke-width="8" stroke-miterlimit="6" stroke-linecap="round" stroke-linejoin="round"/>
<path d="M151.873 132.069C154.354 130.035 154.166 125.703 151.453 122.394C148.739 119.084 144.529 118.051 142.048 120.085C139.567 122.119 139.755 126.451 142.469 129.76C145.182 133.069 149.393 134.103 151.873 132.069Z" stroke="black" stroke-width="8" stroke-miterlimit="6" stroke-linecap="round" stroke-linejoin="round"/>
<path d="M98.2623 155.456C100.743 153.422 100.555 149.091 97.8415 145.781C95.1282 142.472 90.9175 141.438 88.4366 143.472C85.9557 145.507 86.1441 149.838 88.8574 153.147C91.5707 156.457 95.7814 157.49 98.2623 155.456Z" stroke="black" stroke-width="8" stroke-miterlimit="6" stroke-linecap="round" stroke-linejoin="round"/>
<path d="M72.8255 170.975C75.3064 168.941 75.118 164.609 72.4047 161.3C69.6914 157.991 65.4807 156.957 62.9998 158.991C60.519 161.025 60.7074 165.357 63.4207 168.666C66.134 171.975 70.3447 173.009 72.8255 170.975Z" stroke="black" stroke-width="8" stroke-miterlimit="6" stroke-linecap="round" stroke-linejoin="round"/>
<path d="M104.814 47.5911L99.1252 23.4874L108.261 19.9998L109.94 31.5222L102.292 34.7525" stroke="black" stroke-width="8" stroke-miterlimit="6" stroke-linecap="round" stroke-linejoin="round"/>
<path d="M148.695 58.0057C148.695 58.0057 147.163 33.2422 105.933 47.246C105.933 47.246 71.3748 57.4481 42.5022 82.5691C42.5022 82.5691 20.5851 103.556 27.3796 120.647" stroke="black" stroke-width="8" stroke-miterlimit="6" stroke-linecap="round" stroke-linejoin="round"/>
<path d="M31.0693 119.199C31.0693 119.199 38.0646 145.592 51.224 165.492C51.224 165.492 106.015 117.438 165.458 111.822L147.724 60.5132" stroke="black" stroke-width="8" stroke-miterlimit="6" stroke-linecap="round" stroke-linejoin="round"/>
<path d="M98.0396 73.9322C98.0396 73.9322 103.629 97.6446 116.885 124.345" stroke="black" stroke-width="8" stroke-miterlimit="6" stroke-linecap="round" stroke-linejoin="round"/>
<path d="M83.2842 142.159C83.2842 142.159 68.6569 119.665 62.0491 94.3832" stroke="black" stroke-width="8" stroke-miterlimit="6" stroke-linecap="round" stroke-linejoin="round"/>
<path d="M28.3696 119.166C28.3696 119.166 86.4009 65.7593 149.433 59.4844" stroke="black" stroke-width="8" stroke-miterlimit="6" stroke-linecap="round" stroke-linejoin="round"/>
<path d="M156.362 86.3215C156.362 86.3215 104.369 87.2352 42.4045 142.096" stroke="black" stroke-width="8" stroke-miterlimit="6" stroke-linecap="round" stroke-linejoin="round"/>
<path d="M128.649 107.297C130.111 107.297 131.297 106.111 131.297 104.649C131.297 103.186 130.111 102 128.649 102C127.186 102 126 103.186 126 104.649C126 106.111 127.186 107.297 128.649 107.297Z" stroke="black" stroke-width="6" stroke-miterlimit="6" stroke-linecap="round" stroke-linejoin="round"/>
<path d="M147.65 105.3C150.218 105.3 152.3 103.218 152.3 100.65C152.3 98.0819 150.218 96 147.65 96C145.082 96 143 98.0819 143 100.65C143 103.218 145.082 105.3 147.65 105.3Z" stroke="black" stroke-width="6" stroke-miterlimit="6" stroke-linecap="round" stroke-linejoin="round"/>
</svg>

<svg width="192" height="192" fill="none" xmlns="http://www.w3.org/2000/svg"><path d="M130.068 140.239c2.48-2.034 2.292-6.366-.421-9.675-2.714-3.309-6.924-4.343-9.405-2.309-2.481 2.034-2.293 6.366.421 9.675 2.713 3.309 6.924 4.343 9.405 2.309ZM151.873 132.069c2.481-2.034 2.293-6.366-.42-9.675-2.714-3.31-6.924-4.343-9.405-2.309-2.481 2.034-2.293 6.366.421 9.675 2.713 3.309 6.924 4.343 9.404 2.309ZM98.262 155.456c2.481-2.034 2.293-6.365-.42-9.675-2.714-3.309-6.924-4.343-9.405-2.309-2.481 2.035-2.293 6.366.42 9.675 2.714 3.31 6.924 4.343 9.405 2.309ZM72.826 170.975c2.48-2.034 2.292-6.366-.421-9.675-2.714-3.309-6.924-4.343-9.405-2.309-2.481 2.034-2.293 6.366.42 9.675 2.714 3.309 6.925 4.343 9.406 2.309ZM104.814 47.591l-5.689-24.104L108.261 20l1.679 11.522-7.648 3.23" stroke="#000" stroke-width="8" stroke-miterlimit="6" stroke-linecap="round" stroke-linejoin="round"/><path d="M148.695 58.006s-1.532-24.764-42.762-10.76c0 0-34.558 10.202-63.43 35.323 0 0-21.918 20.987-15.123 38.078M31.07 119.199s6.995 26.393 20.154 46.293c0 0 54.791-48.054 114.234-53.67l-17.734-51.309" stroke="#000" stroke-width="8" stroke-miterlimit="6" stroke-linecap="round" stroke-linejoin="round"/><path d="M98.04 73.932s5.589 23.713 18.845 50.413M83.284 142.159S68.657 119.665 62.05 94.383" stroke="#000" stroke-width="8" stroke-miterlimit="6" stroke-linecap="round" stroke-linejoin="round"/><path d="M28.37 119.166S86.4 65.759 149.433 59.484M156.362 86.322s-51.993.913-113.957 55.774" stroke="#000" stroke-width="8" stroke-miterlimit="6" stroke-linecap="round" stroke-linejoin="round"/><path d="M128.649 107.297a2.649 2.649 0 1 0-.001-5.297 2.649 2.649 0 0 0 .001 5.297ZM147.65 105.3a4.65 4.65 0 1 0 0-9.3 4.65 4.65 0 0 0 0 9.3Z" stroke="#000" stroke-width="6" stroke-miterlimit="6" stroke-linecap="round" stroke-linejoin="round"/></svg>
